X:620
T: Templeglantine Reel (A)
T: Teampall an Ghleannt\'ain
S: B.Breathnach: "Ceol Rince na hEireann" II/153
Z: B.Black
L: 1/8
M: 4/4
R: reel
K: A
e2 fg||a2 ec Acec|Acec dB B2|eaaf c2 (3ABc|dfed cA A2|
(3aba ec AceA|Acec dB B2|eaaf e2 (3efg|a2 ba afed||
(3cBA eA fAeA|(3cBA ec B2 B2|(3cBA eA fAeA|dfed A2-A2|
(3cBA eA fAeA|(3cBA ec B2 B2|Accc defa|gbeg a2 (3eee||

